X:1
T: The Four Courts #2
C:
R:Reel
Q: 232
K:A
M:4/4
L:1/8
c2 Ac B2 Ad|c2 Ac Bc dB|c2 Ac B2 Ac|d2 fd Bc dB|
c2 Ac B2 Ad|c2 Ac Bc dB|c2 Ac B2 Ac|d2 fd Bc dB|
ce eg f2 df|e2 cA Bc dB|ce eg ((3fga) ec|d2 fd Bc dB|
ce eg f2 df|e2 cA Bc dB|ce eg ((3fga) ec|d2 fd Bc dB|
a2 eg a2 eg|a2 ec Bc dB|a2 eg a2 ec|d2 fd Bc dB|
ag bg ag bg|ag ec Bc dB|ag bg ag ec|d2 fd Bc dB|
eA cA eA cA|eA cA Bc dB|eA cA eA cA|d2 fd Bc dB|
eA cA eA cA|eA cA Bc dB|eA cA eA cA|d2 fd Bc dB||
